X:89
T:New Drury. WM.088
M:C
L:1/8
Q:1/2=100
S:Wm.Mittell’s MS, New Romney,Kent,1799
R:.Country Dance
O:England
A:Kent
Z:vmp.Chris Partington
W:Foot it (?)right hands across,foot it (?)left hands back again.Lead
W:down 2 couple,up again 1 couple,allemande
K:G
gdBd dcBA|Ggbg gfed|gdBd gece|dBcAG2G2:|!
|:GBd=f ecBc|A^ceg gfed|gb d=f eg Ac|Bd DF G2G2:|

